X: 23176
T: Le Reel D'Alain
R: reel
M: 4/4
K: Gmajor
A|:B3B BAGA|Bdde dBGE|DE=F2FEFG|A=FcF dFcA|
B3B BAGA|Bdde dBGE|DCB,A, G,B,DG|1 BBAFG3A:|2 BBAFG2Bd||
|:g3a bgdB|c2B2A2G2|[M:6/4]FGEF DFAc BGBd|[M:4/4]g3a bgdB|
c2B2A2G2|FGEF DFAc|1 BBAFG2Bd:|2 BBAF G3||

